src/assets/images/icons/icon-position-inverted-tools.svg

<svg width="26" height="25" viewBox="0 0 26 25" fill="none" xmlns="http://www.w3.org/2000/svg">
<path d="M24.8358 19.3194L19.1183 13.6022C17.9905 12.4744 16.306 12.2547 14.9487 12.9235L9.74386 7.71897V4.68704L3.49421 0L0.369385 3.12469L5.05662 9.37408H8.08868L13.2935 14.5787C12.6294 15.9359 12.8443 17.6203 13.9721 18.7482L19.6896 24.4654C20.4024 25.1782 21.5547 25.1782 22.2627 24.4654L24.8358 21.8924C25.5438 21.1796 25.5438 20.0273 24.8358 19.3194ZM16.5648 10.9853C17.9465 10.9853 19.2453 11.5223 20.2218 12.4988L21.169 13.446C21.9404 13.1091 22.6728 12.6404 23.3076 12.0057C25.119 10.1943 25.7342 7.64574 25.158 5.33151C25.0506 4.8921 24.4989 4.74075 24.1767 5.06298L20.544 8.69544L17.2288 8.14374L16.6771 4.82863L20.3097 1.19617C20.6319 0.873938 20.4757 0.322234 20.0314 0.20994C17.7171 -0.361293 15.1684 0.253881 13.3618 2.06035C11.9703 3.45181 11.316 5.28757 11.3502 7.11845L15.3588 11.1268C15.7543 11.0341 16.1644 10.9853 16.5648 10.9853ZM11.4918 14.9888L8.72341 12.2205L1.28242 19.666C0.0617846 20.8866 0.0617846 22.864 1.28242 24.0846C2.50305 25.3051 4.48048 25.3051 5.70112 24.0846L11.7359 18.05C11.3649 17.0784 11.2526 16.0189 11.4918 14.9888ZM3.49421 23.0446C2.84972 23.0446 2.3224 22.5173 2.3224 21.8729C2.3224 21.2235 2.84483 20.7011 3.49421 20.7011C4.14359 20.7011 4.66602 21.2235 4.66602 21.8729C4.66602 22.5173 4.14359 23.0446 3.49421 23.0446Z" fill="white"/>
</svg>

<svg xmlns="http://www.w3.org/2000/svg" width="26" height="25" fill="none"><path fill="#fff" d="m24.836 19.32-5.718-5.718a3.625 3.625 0 0 0-4.17-.678L9.745 7.719V4.687L3.494 0 .37 3.125l4.688 6.25h3.032l5.204 5.204c-.664 1.357-.449 3.041.68 4.17l5.717 5.716a1.815 1.815 0 0 0 2.573 0l2.573-2.573a1.824 1.824 0 0 0 0-2.573Zm-8.271-8.335c1.381 0 2.68.537 3.657 1.514l.947.947a6.913 6.913 0 0 0 2.139-1.44 7.021 7.021 0 0 0 1.85-6.674.584.584 0 0 0-.981-.269l-3.633 3.632-3.315-.551-.552-3.315 3.633-3.633A.59.59 0 0 0 20.03.21a7.034 7.034 0 0 0-6.67 1.85c-1.39 1.392-2.045 3.228-2.01 5.058l4.008 4.009a5.323 5.323 0 0 1 1.206-.142Zm-5.073 4.004L8.723 12.22l-7.44 7.446A3.124 3.124 0 1 0 5.7 24.085l6.035-6.035c-.371-.972-.483-2.031-.244-3.061Zm-7.998 8.056a1.175 1.175 0 0 1-1.172-1.172c0-.65.523-1.172 1.172-1.172a1.172 1.172 0 0 1 0 2.343Z"/></svg>
